src/assets/brands/veraz.svg

<svg xmlns="http://www.w3.org/2000/svg" viewBox="0 0 256 60">
  <path fill="#fff" d="M96.95 50.64v9.2H59.6V.24h37.35v9.2H68.48v13.44h24.77v9.2H68.48v18.56h28.47zM135.28 59.76L120.23 37.2h-9.49V60h-8.95V0l26.62.08c2.47 0 4.78.49 6.94 1.48s4.05 2.32 5.67 4c1.62 1.68 2.89 3.67 3.82 5.96.93 2.29 1.39 4.72 1.39 7.28 0 2.35-.39 4.55-1.16 6.6-.77 2.05-1.85 3.89-3.24 5.52a18.507 18.507 0 0 1-4.86 4.04 16.843 16.843 0 0 1-6.02 2.08l15.2 22.72h-10.87zM128.41 28c1.23 0 2.38-.24 3.43-.72a8.842 8.842 0 0 0 2.78-2c.8-.85 1.43-1.83 1.89-2.92.46-1.09.69-2.28.69-3.56 0-1.28-.23-2.49-.69-3.64a9.206 9.206 0 0 0-1.93-3 9.781 9.781 0 0 0-2.82-2.04c-1.05-.51-2.2-.76-3.43-.76h-17.59v18.56l17.67.08zM255.38.16v7.76l-31.95 42.56h31.95v9.28H210.7v-7.52l32.02-42.8h-31.86V.16h44.52zM41.9 30.84h-9.88L39.51 13 44.83.04h9.88L41.9 30.84zM27.32 42.2h9.88l-7.41 17.68h-4.94L0 .04h9.8l9.26 22.32 8.26 19.84zM181.11.28l24.77 59.68h-9.87l-5.4-12.88-12.04-29.28-8.34 19.92-9.25 22.24h-9.73L176.1.28h5.01z" />
</svg>

<svg width="256" height="60" viewBox="0 0 256 60" fill="none" xmlns="http://www.w3.org/2000/svg">
<g clip-path="url(#clip0_7_544)">
<path d="M96.95 50.64V59.84H59.6V0.24H96.95V9.44H68.48V22.88H93.25V32.08H68.48V50.64H96.95ZM135.28 59.76L120.23 37.2H110.74V60H101.79V0L128.41 0.08C130.88 0.08 133.19 0.57 135.35 1.56C137.51 2.55 139.4 3.88 141.02 5.56C142.64 7.24 143.91 9.23 144.84 11.52C145.77 13.81 146.23 16.24 146.23 18.8C146.23 21.15 145.84 23.35 145.07 25.4C144.3 27.45 143.22 29.29 141.83 30.92C140.454 32.5354 138.81 33.9019 136.97 34.96C135.114 36.0299 133.071 36.7358 130.95 37.04L146.15 59.76H135.28ZM128.41 28C129.64 28 130.79 27.76 131.84 27.28C132.888 26.8009 133.833 26.1215 134.62 25.28C135.42 24.43 136.05 23.45 136.51 22.36C136.97 21.27 137.2 20.08 137.2 18.8C137.2 17.52 136.97 16.31 136.51 15.16C136.068 14.0437 135.413 13.0246 134.58 12.16C133.77 11.3169 132.814 10.6259 131.76 10.12C130.71 9.61 129.56 9.36 128.33 9.36H110.74V27.92L128.41 28ZM255.38 0.16V7.92L223.43 50.48H255.38V59.76H210.7V52.24L242.72 9.44H210.86V0.16H255.38ZM41.9 30.84H32.02L39.51 13L44.83 0.04H54.71L41.9 30.84ZM27.32 42.2H37.2L29.79 59.88H24.85L0 0.04H9.8L19.06 22.36L27.32 42.2ZM181.11 0.28L205.88 59.96H196.01L190.61 47.08L178.57 17.8L170.23 37.72L160.98 59.96H151.25L176.1 0.28H181.11Z" fill="#E66D2D"/>
</g>
<defs>
<clipPath id="clip0_7_544">
<rect width="256" height="60" fill="white"/>
</clipPath>
</defs>
</svg>
